local/share/icons/dracula-icons-main/scalable/apps/typora.svg

<?xml version="1.0" encoding="UTF-8"?>
<svg xmlns="http://www.w3.org/2000/svg" xmlns:xlink="http://www.w3.org/1999/xlink" width="64" height="64" viewBox="0 0 64 64">
<defs>
<filter id="filter-remove-color" x="0%" y="0%" width="100%" height="100%">
<feColorMatrix color-interpolation-filters="sRGB" values="0 0 0 0 1 0 0 0 0 1 0 0 0 0 1 0 0 0 1 0" />
</filter>
<mask id="mask-0">
<g filter="url(#filter-remove-color)">
<rect x="-6.4" y="-6.4" width="76.8" height="76.8" fill="rgb(0%, 0%, 0%)" fill-opacity="0.35"/>
</g>
</mask>
<clipPath id="clip-0">
<rect x="0" y="0" width="17" height="17"/>
</clipPath>
<g id="source-9370" clip-path="url(#clip-0)">
<path fill-rule="nonzero" fill="rgb(100%, 100%, 100%)" fill-opacity="1" d="M 8.464844 2.382812 L 8.46875 2.382812 C 11.828125 2.382812 14.550781 5.105469 14.550781 8.464844 L 14.550781 8.46875 C 14.550781 11.828125 11.828125 14.550781 8.46875 14.550781 L 8.464844 14.550781 C 5.105469 14.550781 2.382812 11.828125 2.382812 8.46875 L 2.382812 8.464844 C 2.382812 5.105469 5.105469 2.382812 8.464844 2.382812 Z M 8.464844 2.382812 "/>
</g>
</defs>
<path fill-rule="nonzero" fill="rgb(90.196078%, 90.196078%, 90.196078%)" fill-opacity="1" d="M 8.464844 1.324219 C 12.410156 1.324219 15.609375 4.519531 15.609375 8.464844 C 15.609375 12.410156 12.410156 15.609375 8.464844 15.609375 C 4.519531 15.609375 1.324219 12.410156 1.324219 8.464844 C 1.324219 4.519531 4.519531 1.324219 8.464844 1.324219 Z M 8.464844 1.324219 "/>
<g mask="url(#mask-0)">
<use xlink:href="#source-9370"/>
</g>
<path fill-rule="nonzero" fill="rgb(30.196078%, 30.196078%, 30.196078%)" fill-opacity="1" d="M 11.851562 4.234375 L 5.078125 4.234375 L 4.867188 7.621094 L 5.503906 7.621094 C 5.589844 7.035156 5.679688 6.460938 5.8125 6.085938 C 6.125 5.230469 6.371094 5.097656 7.195312 5.097656 C 7.597656 5.097656 7.832031 5.226562 7.832031 5.519531 L 7.832031 11.324219 C 7.832031 11.816406 7.832031 11.851562 6.914062 11.851562 L 6.5625 11.851562 L 6.5625 12.699219 L 10.371094 12.699219 L 10.371094 11.851562 L 10.015625 11.851562 C 9.046875 11.851562 9.101562 11.816406 9.101562 11.324219 L 9.101562 5.519531 C 9.101562 5.226562 9.335938 5.097656 9.734375 5.097656 C 10.476562 5.097656 10.746094 5.183594 11.046875 5.886719 C 11.230469 6.320312 11.332031 6.953125 11.429688 7.621094 L 12.066406 7.621094 Z M 11.851562 4.234375 "/>
</svg>

<svg width="64" height="64" version="1.1" viewBox="0 0 16.933 16.933" xmlns="http://www.w3.org/2000/svg">
 <rect x="1.3229" y="1.3229" width="14.287" height="14.287" rx="7.1436" ry="7.1436" fill="#e6e6e6" stroke-width=".96425"/>
 <rect x="2.3812" y="2.3812" width="12.171" height="12.171" rx="6.0853" ry="6.0853" fill="#ffffff" opacity=".35" stroke-width=".82142"/>
 <path d="m11.853 4.2332h-6.7732l-0.21166 3.3867h0.63498c0.084793-0.58632 0.17504-1.1586 0.30831-1.5338 0.31499-0.85617 0.5612-0.98705 1.385-0.98705 0.39977 0 0.63498 0.12899 0.63498 0.42216v5.8044c0 0.49234 0 0.52748-0.91609 0.52748h-0.3539v0.84665h3.8099v-0.84665h-0.354c-0.96945 0-0.91609-0.03514-0.91609-0.52748v-5.8044c0-0.29317 0.23522-0.42216 0.63498-0.42216 0.73895 0 1.0096 0.083985 1.3124 0.78757 0.18202 0.43384 0.28405 1.0646 0.38099 1.7331h0.63498z" fill="#4d4d4d" stroke-width=".21167"/>
</svg>
